X:216
T:Jenny Jones
O:No 216 Page 106 William Clarke of Feltwell
M:3/4
L:1/4
N:The letters Sg in bar B16. Assume this is an indication to carry on -  the bit of music between verses of this song. See note to No 214.
K:G
d|gd(B/A/)|GAB|ce(a/g/)|fdf|gdB|c>de|dgf|g2:|a/>a/|bgb|afd|e3/2(f/g/a/)|fda|bgb|afd|gfe|d2e/f/|gd(B/A/)|G>AB|ce(a/g/)|fdf|gdB|c>de|dgf|g2"Segue"d|gdB|c>de|(dgf)|g2|]

